X:3
T:La Malbrouk
F:http://www.vwml.org/record/Moore1/4493/p2
Z:Transcribed by Paul Barber-Riley  March 2016
S:John Moore's Book 1
L:1/8
M:6/8
K:D
d/e/|f2f fef | g3 faf | e2e ede | f2f ffe |
f2f fef | g3f2a | f2e f2f2 | d3d2:|
|:f/g/|a2f b2b2 | (a2a) f/g/a2 | f2b2b2 | (a3a2) d/e/ |
f2f fef | g3 faf | e2e2 ede | f2d2d d/e/ |
f2f fef | g3f2a | f2d e2e | d3d2|]

